symbols/web/motorcycle/materialsymbolsrounded/motorcycle_wght300gradN25fill1_40px.svg

<svg xmlns="http://www.w3.org/2000/svg" height="40" width="40"><path d="M8.792 30.667q-3.084 0-5.25-2.146-2.167-2.146-2.167-5.188 0-3.083 2.167-5.229 2.166-2.146 5.25-2.146h19.583l-4.625-4.625h-4.375q-.458 0-.75-.291-.292-.292-.292-.709 0-.416.292-.708t.75-.292h4.708q.25 0 .459.084.208.083.416.291l6.25 6.25q3.209-.041 5.313 2.167 2.104 2.208 2.104 5.208 0 3.042-2.167 5.188-2.166 2.146-5.208 2.146-3.083 0-5.229-2.146t-2.146-5.188q0-1.083.375-2.104.375-1.021 1.042-1.854h-1.417L19.5 23.75q-.333.333-.812.542-.48.208-.98.208H16q-.417 2.667-2.458 4.417-2.042 1.75-4.75 1.75Zm22.416-2q2.25 0 3.834-1.563 1.583-1.562 1.583-3.771 0-2.25-1.563-3.812-1.562-1.563-3.812-1.563t-3.812 1.563q-1.563 1.562-1.563 3.771 0 2.25 1.563 3.812 1.562 1.563 3.77 1.563Zm-22.416 0q1.833 0 3.333-1.167 1.5-1.167 1.917-3.208h-3.875q-.417 0-.709-.292-.291-.292-.291-.708 0-.417.291-.709.292-.291.709-.291h3.875q-.417-2-1.917-3.167-1.5-1.167-3.375-1.167-2.208 0-3.792 1.563-1.583 1.562-1.583 3.771 0 2.25 1.583 3.812 1.584 1.563 3.834 1.563Z"/></svg>

<svg xmlns="http://www.w3.org/2000/svg" height="40" width="40"><path d="M8.792 30.667Q5.708 30.667 3.542 28.521Q1.375 26.375 1.375 23.333Q1.375 20.25 3.542 18.104Q5.708 15.958 8.792 15.958H28.375L23.75 11.333H19.375Q18.917 11.333 18.625 11.042Q18.333 10.75 18.333 10.333Q18.333 9.917 18.625 9.625Q18.917 9.333 19.375 9.333H24.083Q24.333 9.333 24.542 9.417Q24.75 9.5 24.958 9.708L31.208 15.958Q34.417 15.917 36.521 18.125Q38.625 20.333 38.625 23.333Q38.625 26.375 36.458 28.521Q34.292 30.667 31.25 30.667Q28.167 30.667 26.021 28.521Q23.875 26.375 23.875 23.333Q23.875 22.25 24.25 21.229Q24.625 20.208 25.292 19.375H23.875L19.5 23.75Q19.167 24.083 18.688 24.292Q18.208 24.5 17.708 24.5H16Q15.583 27.167 13.542 28.917Q11.5 30.667 8.792 30.667ZM31.208 28.667Q33.458 28.667 35.042 27.104Q36.625 25.542 36.625 23.333Q36.625 21.083 35.062 19.521Q33.5 17.958 31.25 17.958Q29 17.958 27.438 19.521Q25.875 21.083 25.875 23.292Q25.875 25.542 27.438 27.104Q29 28.667 31.208 28.667ZM8.792 28.667Q10.625 28.667 12.125 27.5Q13.625 26.333 14.042 24.292H10.167Q9.75 24.292 9.458 24Q9.167 23.708 9.167 23.292Q9.167 22.875 9.458 22.583Q9.75 22.292 10.167 22.292H14.042Q13.625 20.292 12.125 19.125Q10.625 17.958 8.75 17.958Q6.542 17.958 4.958 19.521Q3.375 21.083 3.375 23.292Q3.375 25.542 4.958 27.104Q6.542 28.667 8.792 28.667Z"/></svg>
